!!!!SEGMENT: pl-wtm--r-779-m_moniuszko-stanislaw--benedictus.krn
!!!cenid: 18xx:2721
!!!COM: Moniuszko, Stanisław
!!!COM-rismid: pe30008351
!!!CDT: 1819/05/05-1872/06/04
!!!CNT: Polish
!!!OTL: Benedictus
!!!PDT: 1867
!!!AGN: Sacred
!!!SMS-siglum: PL-Wtm
!!!SMS-shelfmark: R 779/M
!!!SMS-shelfwork: W
!!!SMS-variant:
!!!SMS-altvar:
!!!NIFC-rismid: 1001088327
!!!URL-scan: http://repozytorium.nifc.pl/skany/pl-wtm-nut--r779
!!!ONB-nifc:
!!!OMD: Moderato.
!!!key:
**kern	**kern	**dynam	**kern	**dynam	**kern	**dynam	**kern	**dynam	**kern	**dynam	**kern	**dynam	**kern	**dynam	**kern	**dynam	**kern	**text	**dynam
*group3	*group3	*	*group2	*	*group2	*	*group2	*	*group2	*	*group1	*	*group1	*	*group1	*	*group1	*	*
*part9	*part9	*part9	*part8	*part8	*part7	*part7	*part6	*part6	*part5	*part5	*part4	*part4	*part3	*part3	*part2	*part2	*part1	*part1	*part1
*staff10	*staff9	*	*staff8	*	*staff7	*	*staff6	*	*staff5	*	*staff4	*	*staff3	*	*staff2	*	*staff1	*staff1	*
*Iorgan	*Iorgan	*	*Ibass	*	*Iviola	*	*Ivioln	*	*Ivioln	*	*Iempty	*	*Itenor	*	*Ialto	*	*Isoprn	*	*
*I"Or.	*I"Or.	*	*I"Violc CB.	*	*I"Vla	*	*I"V. 2.	*	*I"V. 1.	*	*I"Bas	*	*I"Tenor	*	*I"Alt	*	*I"Sopr.	*	*
*>[A,B,B]	*>[A,B,B]	*	*>[A,B,B]	*	*>[A,B,B]	*	*>[A,B,B]	*	*>[A,B,B]	*	*>[A,B,B]	*	*>[A,B,B]	*	*>[A,B,B]	*	*>[A,B,B]	*	*
*>A	*>A	*	*>A	*	*>A	*	*>A	*	*>A	*	*>A	*	*>A	*	*>A	*	*>A	*	*
*clefF4	*clefG2	*	*clefF4	*	*clefC3	*	*clefG2	*	*clefG2	*	*clefF4	*	*clefGv2	*	*clefG2	*	*clefG2	*	*
*k[f#c#]	*k[f#c#]	*	*k[f#c#]	*	*k[f#c#]	*	*k[f#c#]	*	*k[f#c#]	*	*k[f#c#]	*	*k[f#c#]	*	*k[f#c#]	*	*k[f#c#]	*	*
*D:	*D:	*	*D:	*	*D:	*	*D:	*	*D:	*	*D:	*	*D:	*	*D:	*	*D:	*	*
*M4/4	*M4/4	*	*M4/4	*	*M4/4	*	*M4/4	*	*M4/4	*	*M4/4	*	*M4/4	*	*M4/4	*	*M4/4	*	*
*met(c)	*met(c)	*	*met(c)	*	*met(c)	*	*met(c)	*	*met(c)	*	*met(c)	*	*met(c)	*	*met(c)	*	*met(c)	*	*
*all\right	*all\right	*	*all\right	*	*all\right	*	*all\right	*	*all\right	*	*all\right	*	*all\right	*	*all\right	*	*all\right	*	*
*2\right	*2\right	*	*2\right	*	*2\right	*	*2\right	*	*2\right	*	*2\right	*	*2\right	*	*2\right	*	*2\right	*	*
=1	=1	=1	=1	=1	=1	=1	=1	=1	=1	=1	=1	=1	=1	=1	=1	=1	=1	=1	=1
!	!LO:TX:t=P:problem:znaki przykluczowe:f#cc#	!	!	!	!LO:TX:t=P:problem:znaki przykluczowe:F#c#	!	!LO:TX:t=P:problem:znaki przykluczowe:f#cc#	!	!LO:TX:t=P:problem:znaki przykluczowe:f#cc#	!	!	!	!LO:TX:t=P:problem:znaki przykluczowe:f#c##	!	!LO:TX:t=P:problem:znaki przykluczowe:f#c##	!	!LO:TX:t=P:problem:znaki przykluczowe:f#cc#	!	!
1r	1r	.	1r	.	1r	.	1r	.	1r	.	1r	.	1r	.	1r	.	2r	.	.
.	.	.	.	.	.	.	.	.	.	.	.	.	.	.	.	.	4r	.	.
!	!	!	!	!	!	!	!	!	!	!	!	!	!	!	!	!	!LO:TX:a:t=Solo, ad libit, co(m)modo.	!	!
.	.	.	.	.	.	.	.	.	.	.	.	.	.	.	.	.	8dd\	Be-	.
.	.	.	.	.	.	.	.	.	.	.	.	.	.	.	.	.	8cc#\	-ne-	.
=2	=2	=2	=2	=2	=2	=2	=2	=2	=2	=2	=2	=2	=2	=2	=2	=2	=2	=2	=2
1r	1r	.	1r	.	1r	.	1r	.	1r	.	1r	.	1r	.	1r	.	4cc#\	-dic-	.
.	.	.	.	.	.	.	.	.	.	.	.	.	.	.	.	.	8b\	-tus	.
.	.	.	.	.	.	.	.	.	.	.	.	.	.	.	.	.	8a\	qui	.
.	.	.	.	.	.	.	.	.	.	.	.	.	.	.	.	.	4a/	ve-	.
.	.	.	.	.	.	.	.	.	.	.	.	.	.	.	.	.	8g/	-nit	.
.	.	.	.	.	.	.	.	.	.	.	.	.	.	.	.	.	8f#/	in	.
=3	=3	=3	=3	=3	=3	=3	=3	=3	=3	=3	=3	=3	=3	=3	=3	=3	=3	=3	=3
1r	1r	.	1r	.	1r	.	1r	.	1r	.	1r	.	1r	.	1r	.	4b/	no-	.
.	.	.	.	.	.	.	.	.	.	.	.	.	.	.	.	.	8a/	-mi-	.
.	.	.	.	.	.	.	.	.	.	.	.	.	.	.	.	.	8f#/	-ne	.
.	.	.	.	.	.	.	.	.	.	.	.	.	.	.	.	.	4.d/	Do-	.
.	.	.	.	.	.	.	.	.	.	.	.	.	.	.	.	.	8e/	-mi-	.
=4	=4	=4	=4	=4	=4	=4	=4	=4	=4	=4	=4	=4	=4	=4	=4	=4	=4	=4	=4
!	!	!	!	!	!	!	!	!	!	!	!	!	!	!	!	!	!LO:TX:i:t=a tempo Moderato.	!	!
1r	1r	.	2r	.	2r	.	2r	.	2r	.	2r	.	2r	.	2r	.	[2f#/	-ni	.
.	.	.	4r	.	4r	.	4r	.	4r	.	4r	.	4r	.	4r	.	8f#/]	.	.
.	.	.	.	.	.	.	.	.	.	.	.	.	.	.	.	.	8r	.	.
!	!	!	!	!	!	!	!	!	!	!	!	!	!	!	!	!	!LO:TX:a:t=tutti	!	!
!	!	!	!	!	!	!	!	!	!	!	!	!	!	!	!	!	!	!	!LO:DY:b
!	!	!	!	!	!	!	!	!	!	!	!	!	!	!	!	!LO:DY:a	!	!	!
!	!	!	!	!	!	!	!	!	!	!	!	!	!	!LO:DY:a	!	!	!	!	!
!	!	!	!	!	!	!	!	!	!	!	!	!LO:DY:a	!	!	!	!	!	!	!
.	.	.	8D/L	p	8A/L	p	(8f#/L	p	(8dd\L	p	8D\	p	8A/	p	8f#/	p	8dd\	be-	p
.	.	.	8E/J	.	8A/J	.	8g/J)	.	8cc#\J)	.	8E\	.	8A/	.	8g/	.	8cc#\	-ne-	.
=5	=5	=5	=5	=5	=5	=5	=5	=5	=5	=5	=5	=5	=5	=5	=5	=5	=5	=5	=5
1r	1r	.	4E^/	.	4A^/	.	4g^/	.	4cc#^\	.	4E\	.	4A/	.	4g/	.	4cc#\	-dic-	.
.	.	.	8G/L	.	8A/L	.	8c#/L	.	8b\L	.	8G\	.	8A/	.	8c#/	.	8b\	-tus	.
.	.	.	8G/J	.	8A/J	.	8c#/J	.	8a\J	.	8G\	.	8A/	.	8c#/	.	8a\	qui	.
.	.	.	4G^/	.	4A/	.	4d^/	.	4a^/	.	4F#\	.	4A/	.	4d/	.	4a/	ve-	.
.	.	.	8E/L	.	8A/L	.	8d/L	.	8g/L	.	8E\	.	8A/	.	8d/	.	8g/	-nit	.
.	.	.	8D/J	.	8A/J	.	8d/J	.	8f#/J	.	8D\	.	8A/	.	8d/	.	8f#/	in	.
!!LO:LB:g=original
=6	=6	=6	=6	=6	=6	=6	=6	=6	=6	=6	=6	=6	=6	=6	=6	=6	=6	=6	=6
*	*	*	*^	*	*	*	*	*	*	*	*	*	*	*	*	*	*	*	*
1r	1r	.	(4G^/	1rGG	.	(4G^/	.	2d/	.	(4b^/	.	4G\	.	4G/	.	4d/	.	4b/	no-	.
.	.	.	8F#/L)	.	.	8A/L)	.	.	.	8a/L)	.	8F#\	.	8A/	.	8d/	.	8a/	-mi-	.
.	.	.	8D/J	.	.	8A/J	.	.	.	8f#/J	.	8D\	.	8A/	.	8d/	.	8f#/	-ne	.
.	.	.	4C#/	.	.	4B/	.	4.d/	.	4.d/	.	4BB/	.	4B\	.	4.d/	.	4.d/	Do-	.
.	.	.	4C#/	.	.	4G/	.	.	.	.	.	4BB/	.	4G/	.	.	.	.	.	.
.	.	.	.	.	.	.	.	8c#/	.	8e/	.	.	.	.	.	8c#/	.	8e/	-mi-	.
=7	=7	=7	=7	=7	=7	=7	=7	=7	=7	=7	=7	=7	=7	=7	=7	=7	=7	=7	=7	=7
1r	1r	.	[4C#/	1rGG	.	[4c#\	.	[4d/	.	[4f#/	.	2BB/	.	2B\	.	2d/	.	2f#/	-ni	.
.	.	.	8C#/]	.	.	8c#\]	.	8d/]	.	8f#/]	.	.	.	.	.	.	.	.	.	.
.	.	.	8r	.	.	8r	.	8r	.	8r	.	.	.	.	.	.	.	.	.	.
!	!	!	!	!	!	!	!	!	!	!	!	!	!	!LO:TX:a:t=ralent	!	!LO:TX:a:t=ralent	!	!LO:TX:a:t=rallent	!	!
.	.	.	2r	.	.	2r	.	2r	.	2r	.	2r	.	4.B\	ppp	4.f#/	ppp	4.a/	Do-	ppp
.	.	.	.	.	.	.	.	.	.	.	.	.	.	8B\	.	8e/	.	8g/	-mi-	.
*	*	*	*v	*v	*	*	*	*	*	*	*	*	*	*	*	*	*	*	*	*
=8	=8	=8	=8	=8	=8	=8	=8	=8	=8	=8	=8	=8	=8	=8	=8	=8	=8	=8	=8
2r;	2r;	.	2r;	.	2r;	.	2r;	.	2r;	.	2r;	.	2B;\	.	2d;/	.	2f#;/	-ni	.
!	!	!	!	!	!	!	!	!	!	!	!	!	!	!	!	!	!LO:TX:b:t=ad libit\npiu largo.	!	!
2r	2r	.	4r	.	2r	.	2r	.	4r	.	2r	.	2r	.	2r	.	4r	.	.
!	!	!	!	!LO:DY:a	!	!	!	!	!LO:TX:b:t=colla parte	!	!	!	!	!	!	!	!LO:TX:a:t=Solo	!	!
.	.	.	(8d/L	pp	.	.	.	.	(8dd\L	pp	.	.	.	.	.	.	8dd\	be-	.
.	.	.	8c#/J)	.	.	.	.	.	8cc#\J)	.	.	.	.	.	.	.	8cc#\	-ne-	.
=9	=9	=9	=9	=9	=9	=9	=9	=9	=9	=9	=9	=9	=9	=9	=9	=9	=9	=9	=9
!	!	!	!LO:TX:a:t=colla parte	!	!	!	!	!	!	!	!	!	!	!	!	!	!	!	!
1r	1r	.	4c#/	.	1r	.	1r	.	4cc#\	.	1r	.	1r	.	1r	.	4cc#\	-dic-	.
.	.	.	(8B/L	.	.	.	.	.	(8b\L	.	.	.	.	.	.	.	8b\	-tus	.
.	.	.	8A/J)	.	.	.	.	.	8a\J)	.	.	.	.	.	.	.	8a\	qui	.
.	.	.	4A/	.	.	.	.	.	4a/	.	.	.	.	.	.	.	4a/	ve-	.
.	.	.	(8G/L	.	.	.	.	.	(8g/L	.	.	.	.	.	.	.	8g/	-nit	.
.	.	.	8F#/J)	.	.	.	.	.	8f#/J)	.	.	.	.	.	.	.	8f#/	in	.
=10	=10	=10	=10	=10	=10	=10	=10	=10	=10	=10	=10	=10	=10	=10	=10	=10	=10	=10	=10
1r	1r	.	(4B^/	.	1r	.	1r	.	(4b^/	.	1r	.	1r	.	1r	.	4b\	no-	.
.	.	.	8A/L)	.	.	.	.	.	8a/L)	.	.	.	.	.	.	.	8a/	-mi-	.
.	.	.	8F#/J	.	.	.	.	.	8f#/J	.	.	.	.	.	.	.	8f#/	-ne	.
.	.	.	4.D/	.	.	.	.	.	4.d/	.	.	.	.	.	.	.	4.d/	Do-	.
.	.	.	8E/	.	.	.	.	.	8e/	.	.	.	.	.	.	.	8e/	-mi-	.
=11	=11	=11	=11	=11	=11	=11	=11	=11	=11	=11	=11	=11	=11	=11	=11	=11	=11	=11	=11
*	*	*	*^	*	*	*	*	*	*	*	*	*	*	*	*	*	*^	*	*
1r	1r	.	2.F#/	2.r	.	2r	.	2r	.	2.f#/	.	2r	.	2r	.	2r	.	[2f#/	2rgg	-ni	.
.	.	.	.	.	.	4r	.	4r	.	.	.	4r	.	4r	.	4r	.	8f#/]	4rgg	.	.
.	.	.	.	.	.	.	.	.	.	.	.	.	.	.	.	.	.	8r	.	.	.
!	!	!	!	!	!	!	!	!	!	!	!	!	!LO:DY:a	!	!	!	!LO:DY:a	!LO:TX:a:t=tutti	!	!	!
!	!	!	!	!	!	!	!	!	!	!	!	!	!	!	!LO:DY:a	!	!	!	!	!	!
.	.	.	8BB/L	(8BB\L	pp	(8B/L	pp	(4f#/	pp	(8dd\L	pp	8BB/	pp	8B/	pp	8f#/	pp	8dd\	4ryy	be-	pp
.	.	.	8C#/J	8C#\J)	.	8A/J)	.	.	.	8cc#\J)	.	8C#/	.	8A/	.	8f#/	.	8cc#\	.	-ne-	.
*	*	*	*	*	*	*	*	*	*	*	*	*	*	*	*	*	*	*v	*v	*	*
!!LO:PB:g=original
=12	=12	=12	=12	=12	=12	=12	=12	=12	=12	=12	=12	=12	=12	=12	=12	=12	=12	=12	=12	=12
1r	1r	.	4C#/	4C#\	.	4A/	.	4f#^/)	.	4cc#^\	.	4C#\	.	4A/	.	4f#/	.	4cc#\	-dic-	.
.	.	.	8C#/L	8C#\L	.	8d^\L	.	8f#/L	.	8b\L	.	8C#\	.	8d^\	.	8f#/	.	8b\	-tus	.
.	.	.	8C#/J	8C#\J	.	8c#^\J	.	8f#/J	.	8a\J	.	8C#\	.	8c#\	.	8f#/	.	8a\	qui	.
.	.	.	4F#/	4F#\	.	4c#^\	.	4f#^/	.	4a^/	.	4F#\	.	4c#^\	.	4f#/	.	4a/	ve-	.
!	!	!	!	!	!LO:HP:t=dimin	!	!LO:HP:t=dimin	!	!LO:HP:t=dimin	!	!LO:HP:t=dimin	!	!	!	!	!	!	!	!	!
.	.	.	4F#/	4F#\	>	8B/L	>	8e/L	>	8g/L	>	8F#\	.	8B\	.	8e/	.	8g/	-nit	.
.	.	.	.	.	.	8A#X/J	.	8e/J	.	8f#/J	.	8F#\	.	8A#X\	.	8e/	.	8f#/	in	.
=13	=13	=13	=13	=13	=13	=13	=13	=13	=13	=13	=13	=13	=13	=13	=13	=13	=13	=13	=13	=13
1r	1r	.	2BB/	(2BB\	.	2An/	.	2d#X/	.	4b^/	p	4BB/	.	4An/	.	4d#X/	.	4b/	no-	.
!	!	!	!	!	!	!	!	!	!LO:DY:b:t=p.	!	!	!	!	!	!	!	!	!	!	!
.	.	.	.	.	p	.	p	.	p	8a/L	.	8BB/	.	8A/	.	8d#/	.	8a/	-mi-	.
.	.	.	.	.	.	.	.	.	.	8f#/J	.	8BB/	.	8A/	.	8d#/	.	8f#/	-ne	.
.	.	.	4BB/	4E\)	.	4G#X/	.	4dn/	.	4dn/	.	4BB/	.	4G#X/	.	4dn/	.	4dn/	Do-	.
.	.	.	4BB-X/	4GG\	.	4Gn/	.	4d/	.	4e/	.	4BB-X/	.	4Gn/	.	4d/	.	4e/	-mi-	.
=14	=14	=14	=14	=14	=14	=14	=14	=14	=14	=14	=14	=14	=14	=14	=14	=14	=14	=14	=14	=14
!	!	!	!	!	!	!	!	!	!	!	!	!LO:TX:a:t=ralent	!	!LO:TX:a:t=ralent	!	!LO:TX:a:t=rallent	!	!LO:TX:a:t=ralent	!	!
1r	1r	.	[4AA/	(4C#\	]	[4F#/	.	[4d/	.	[4f#/	.	2AA/	.	2F#/	.	2d 2A/	.	2f#/	-ni,	.
.	.	.	8AA/]	8D\)	.	8F#/]	.	8d/]	.	8f#/]	.	.	.	.	.	.	.	.	.	.
.	.	.	8r	8r	.	8r	.	8r	.	8r	.	.	.	.	.	.	.	.	.	.
!	!	!	!	!	!	!	!	!	!	!	!	!	!LO:DY:a:t=pp.	!	!LO:DY:a	!	!LO:DY:a	!	!	!
!	!	!	!	!	!	!	!	!	!	!	!	!	!	!	!	!	!	!	!	!LO:DY:b
.	.	.	2r	2ryy	.	2r	.	2r	.	2r	.	4.AA/	pp	4.E/	pp	4.c#/	pp	4.a/	Do-	pp
.	.	.	.	.	.	.	.	.	.	.	.	8AA/	.	8A/	.	8c#/	.	8g/	-mi-	.
*	*	*	*v	*v	*	*	*	*	*	*	*	*	*	*	*	*	*	*	*	*
=	=	=	=	=	=	=	=	=	=	=	=	=	=	=	=	=	=	=	=
!	!LO:TX:b:t=piu moſso	!	!	!	!	!	!	!	!LO:TX:b:t=piu moſso	!	!	!	!	!	!	!	!	!	!
2r;	2r;	.	2D;\	.	2r;	.	2r;	.	2r;	.	2AA;/	.	2A;/	.	2d;/	.	2f#;/	-ni.	.
!	!	!	!	!	!	!	!	!	!	!	!	!	!	!	!	!	!LO:TX:a:t=piu moſso	!	!
4r	4r	.	4r	.	4r	.	4r	.	4r	.	4r	.	4r	.	4r	.	4r	.	.
=!|:	=!|:	=!|:	=!|:	=!|:	=!|:	=!|:	=!|:	=!|:	=!|:	=!|:	=!|:	=!|:	=!|:	=!|:	=!|:	=!|:	=!|:	=!|:	=!|:
*>B	*>B	*	*>B	*	*>B	*	*>B	*	*>B	*	*>B	*	*>B	*	*>B	*	*>B	*	*
!	!	!	!	!	!	!	!LO:TX:t=col 1mo	!	!	!	!	!LO:DY:a	!	!LO:DY:a	!	!LO:DY:a	!	!	!LO:DY:a
8DL 8DD^/	8d^/L	f	8D^/L	f	8D^/L	f	8d^yy/L	f	8d^/L	f	8D/	f	8d\	f	8d/	f	8d/	Be-	f
8AA^/J	8A^/J	.	8AA^/J	.	8A^/J	.	8A^yy/J	.	8A^/J	.	8AA/	.	8A\	.	8A/	.	8A/	-ne-	.
=16	=16	=16	=16	=16	=16	=16	=16	=16	=16	=16	=16	=16	=16	=16	=16	=16	=16	=16	=16
4D 4DD/	4d^/	.	4D^\	.	4D^/	.	4d^yy/	.	4d^/	.	4D\	.	4d\	.	4d/	.	4c#/	-di-	.
8EL 8EE/	8e^/L	.	8E^\L	.	8E^/L	.	8e^yy/L	.	8e^/L	.	8E\	.	8e\	.	8e/	.	8e/	-ctus	.
8FnJ 8FFn/	8fn^/J	.	8Fn^\J	.	8Fn^/J	.	8fn^yy/J	.	8fn^/J	.	8Fn\	.	8fn\	.	8fn/	.	8fn/	qui	.
8FL 8FF/	8f^/L	.	8F^\L	.	8F^/L	.	8f^yy/L	.	8f^/L	.	8F\	.	8f\	.	8f/	.	8f/	ve-	.
16DK 16DD/	16d^/K	.	16D^\Jk	.	16D^/Jk	.	16d^yy/Jk	.	16d^/Jk	.	16D\	.	16d\	.	16d/	.	16d/	-nit,	.
16r	16r	.	16r	.	16r	.	16ryy	.	16r	.	16r	.	16r	.	16r	.	16r	.	.
8F 8FF/	8f^/	.	8F^\L	.	8F^/L	.	8f^yy/L	.	8f^/L	.	8F\	.	8f\	.	8f/	.	8f/	be-	.
8DJ 8DD/	8d^/J	.	8D^\J	.	8D^/J	.	8d^yy/J	.	8d^/J	.	8D\	.	8d\	.	8d/	.	8d/	-ne-	.
!!LO:LB:g=original
=17	=17	=17	=17	=17	=17	=17	=17	=17	=17	=17	=17	=17	=17	=17	=17	=17	=17	=17	=17
4Fn 4FFn/	4fn^/	.	4Fn^\	.	4Fn^/	.	4fn^yy/	.	4fn^/	.	4Fn\	.	4Fn/	.	4fn/	.	4fn/	-dic-	.
8GL 8GG/	8g^/L	.	8G^\L	.	8G^/L	.	8g^yy/L	.	8g^/L	.	8G\	.	8G/	.	8g/	.	8g/	-tus	.
8AJ 8AA/	8a^/J	.	8A^\J	.	8A^/J	.	8a^yy/J	.	8a^/J	.	8A\	.	8A/	.	8a/	.	8a/	qui	.
8AL 8AA/	8a^/L	.	8A^\L	.	(8A^/L	.	(yy8a^yy/L	.	(8a^/L	.	8A\	.	8A/	.	8a/	.	8a/	ve-	.
16FJk 16FF/	16f^/Jk	.	16F^\Jk	.	16F/Jk)	.	16fyy/Jk)yy	.	16f/Jk)	.	16F\	.	16F/	.	16f/	.	16g/	-nit	.
16r	16r	.	16r	.	16r	.	16ryy	.	16r	.	16r	.	16r	.	16r	.	16r	.	.
!	!	!	!	!	!	!	!	!	!	!	!	!	!	!	!	!	!	!	!LO:DY:b
8AL 8AA/	8a^/L	.	8A^\L	ff	8A^/L	ff	8a^yy/L	ffyy	8a^/L	ff	8A\	ff	8A/	ff	8a/	ff	8a/	be-	ff
8B-XJ 8BB-X/	8b-X^/J	.	8B-X^\J	.	8B-X^/J	.	8b-X^yy/J	.	8b-X^/J	.	8B-X\	.	8B-X/	.	8b-X/	.	8b-X/	-ne-	.
=18	=18	=18	=18	=18	=18	=18	=18	=18	=18	=18	=18	=18	=18	=18	=18	=18	=18	=18	=18
*	*^	*	*	*	*	*	*	*	*	*	*	*	*	*	*	*	*	*	*
!	!	!	!	!	!	!	!LO:HP:a	!	!	!	!LO:HP:a	!	!LO:HP:a	!	!LO:HP:a	!	!LO:HP:a	!	!	!
4cn 4Cn\	4ccn 4a 4fn/	4ryy	.	4cn\	.	4cn\	<	4ccn^\	<	4ccn^\	<	4cn\	<	4cn\	<	4ccn\	<	4ccn\	-dic-	<
4B-X 4BB-X\	8ddL 8g/	4g\	.	8B-X\L	.	8cL 8Cn/	.	8fn/L	.	8dd\L	.	8B-X\	.	8g 8c\	.	8cc\	.	8dd\	-tus	.
.	8eeJ 8cc/	.	.	8B-\J	.	8cJ 8C/	[	8cc/J	[	8ee\J	.	8B-\	[	8e 8c\	[	8cc\	[	8ee\	qui	[
!	!	!	!	!	!	!	!	!	!	!	!	!	!	!	!	!	!	!	!	!LO:DY:b
4A 4AA/	(4ffn 4cc 4f/	(4f\	.	4A\	.	4A 4C/	.	4cc 4fn/	.	4ffn\	[ sf	4A\	sf	4fn 4c\	sf	4cc\	sf	4ffn\	ve-	sf
4cn 4Fn 4FFn\	4cc/)	4a\)	.	4Fn\	.	8A/	.	8fn/	.	8cc\	.	16Fn\	.	16A/	.	16fn/	.	16ccn\	-nit	.
.	.	.	.	.	.	.	.	.	.	.	.	16r	.	16r	.	16r	.	16r	.	.
.	.	.	.	.	.	8r	.	8r	.	8r	.	8F\	.	8c/	.	8f/	.	8cc\	in	.
=19	=19	=19	=19	=19	=19	=19	=19	=19	=19	=19	=19	=19	=19	=19	=19	=19	=19	=19	=19	=19
*^	*	*	*	*	*	*	*	*	*	*	*	*	*	*	*	*	*	*	*	*
!	!	!	!	!	!LO:TX:b:t=ralent	!	!LO:TX:b:t=ralent	!	!LO:TX:a:t=ralent	!	!LO:TX:a:t=ralent	!	!	!	!	!	!LO:TX:a:t=ralent	!	!LO:TX:a:t=ralent	!	!
4cn/	[2BB-X\	2dd/	4a\	.	2BB-X/	.	4cn^\	.	4a 4d^/	.	4dd 4d^/	.	4BB-X/	.	4cn^\	.	4a^/	.	4dd\	no-	.
!	!	!	!	!	!	!	!	!	!	!	!	!	!LO:TX:a:t=ralent	!	!LO:TX:a:t=ralent	!	!	!	!	!	!
8B-X/L	.	.	8g\L	.	.	.	8B-X/L	.	8gL 8G^/	.	8ddL 8d^/	.	8BB-/	.	8B-X/	.	8g/	.	8dd\	-mi-	.
8A/J	.	.	8fn\J	.	.	.	8A/J	.	8fnJ 8G^/	.	8ddJ 8d^/	.	8BB-/	.	8A/	.	8fn/	.	8dd\	-ne	.
4.G;/	4.BB-\]	4.dd;/	2e\	.	4.BB-^;/	.	4.e 4.G^<;\	.	4.e 4.G^;/	.	4.dd 4.d^;/	.	4.BB-;/	.	4.G;/	.	4.e;/	.	4.dd;\	Do-	.
8A/	8AA\	8cc#X/	.	.	8AA/	.	8A/	.	8e/	.	8cc#X\	.	8AA/	.	8A/	.	8e/	.	8cc#X\	-mi-	.
=20	=20	=20	=20	=20	=20	=20	=20	=20	=20	=20	=20	=20	=20	=20	=20	=20	=20	=20	=20	=20	=20
2A\	2AA\	2a;/	2e 2c#X\	.	2AA;/	> sf	2A;/	> sf	2e 2c#X;/	sf	2ee 2a;\	sf >	2AA;/	.	2A;/	.	2c#X;/	.	2ee 2a;\	-ni,	.
!	!	!LO:TX:a:i:t=piu lento.	!	!LO:DY:t=pp.	!	!	!	!	!	!	!	!	!	!	!	!	!	!	!	!	!
4r	2ryy	4r	4ryy	pp	2r	]	2ryy	]	2r	.	2r	]	4r	.	4r	.	4r	.	4r	.	.
!	!	!	!	!	!	!	!	!	!	!	!	!	!	!LO:DY:t=pp.	!	!LO:DY:t=pp.	!	!	!LO:TX:a:i:t=piu lento	!	!LO:DY:b
!	!	!	!	!	!	!	!	!	!	!	!	!	!	!	!	!	!	!LO:DY:a	!	!	!
!	!	!	!	!	!	!	!	!	!	!	!	!	!	!LO:DY:a	!	!	!	!	!	!	!
4A 4F#X\	.	(8dd/L	4d\	.	.	.	.	.	.	.	.	.	8E\	pp	8A/	pp	8d/	pp	8dd\	be-	pp
.	.	8cc#X/J)	.	.	.	.	.	.	.	.	.	.	8E\	.	8A/	.	8d/	.	8cc#X\	-ne-	.
!!LO:PB:g=original
=21	=21	=21	=21	=21	=21	=21	=21	=21	=21	=21	=21	=21	=21	=21	=21	=21	=21	=21	=21	=21	=21
4.G\	2.ryy	4cc#/	2d\	.	1r	.	1r	.	1r	.	1r	.	4G^\	.	4G^/	.	4d^/	.	4cc#^\	-dic-	.
.	.	8b/L	.	.	.	.	.	.	.	.	.	.	8G\	.	8G/	.	8d/	.	8b\	-tus	.
8A 8F#\	.	8a/J	.	.	.	.	.	.	.	.	.	.	8F#\	.	8A/	.	8d/	.	8a\	qui	.
[4A 4E\	.	8a/L	4c#\	.	.	.	.	.	.	.	.	.	8E\	.	8A/	.	8c#/	.	8a/	ve-	.
.	.	8g/	.	.	.	.	.	.	.	.	.	.	8E\	.	8A/	.	8c#/	.	8g/	-nit	.
4A\]	8D\L	8f#/	4d\	.	.	.	.	.	.	.	.	.	8D\	.	8A/	.	8d/	.	8f#/	be-	.
.	8G\J	8b/J	.	.	.	.	.	.	.	.	.	.	8G\	.	8A/	.	8d/	.	8b/	-ne-	.
=22	=22	=22	=22	=22	=22	=22	=22	=22	=22	=22	=22	=22	=22	=22	=22	=22	=22	=22	=22	=22	=22
2A/	4F#\	4a 4d/	2ryy	.	1r	.	1r	.	1r	.	1r	.	4F#^\	.	4A^/	.	4d^/	.	4a^/	-dic-	.
.	8E\L	8gL 8c#/	.	.	.	.	.	.	.	.	.	.	8E\	.	8A/	.	8c#/	.	8g/	-tus	.
.	8D\J	8f#J 8d/	.	.	.	.	.	.	.	.	.	.	8D\	.	8A/	.	8d/	.	8f#/	qui	.
2A/	8D\L	8f#/L	4d\	.	.	.	.	.	.	.	.	.	8D\	.	4A/	.	8d/L	.	8f#/L	ve-	.
.	8E\	8e/	.	.	.	.	.	.	.	.	.	.	8E\	.	.	.	8A/J	.	8e/J	.	.
.	8F#\	8d/	4ryy	.	.	.	.	.	.	.	.	.	8F#\	.	8A/	.	8d/	.	8d/	-nit	.
.	8E\J	8e/J	.	.	.	.	.	.	.	.	.	.	8E\	.	8A/	.	8c#/	.	8e/	in	.
*v	*v	*	*	*	*	*	*	*	*	*	*	*	*	*	*	*	*	*	*	*	*
*	*v	*v	*	*	*	*	*	*	*	*	*	*	*	*	*	*	*	*	*	*
=23	=23	=23	=23	=23	=23	=23	=23	=23	=23	=23	=23	=23	=23	=23	=23	=23	=23	=23	=23
4A 4D\	4f# 4d/	f	4D\	<	4A/	f <	4d/	f <	4f#/	f <	4D\	.	4A/	.	4d/	.	4f#/	no-	.
!	!	!	!	!	!	!	!	!	!	!	!	!LO:HP:a	!	!LO:HP:a	!	!LO:HP:a	!	!	!
8F#\L	8aL 8f#/	.	8F#\L	.	8dL 8A/	.	8aL 8d/	.	8a\L	.	8F#\	<	8d\	<	8a/	<	8a/	-mi-	<
8A\J	8ddJ 8a 8f#/	.	8A\J	.	8dJ 8A/	.	8aJ 8d/	.	8dd\J	.	8A\	.	8d\	.	8a/	.	8dd\	-ne	.
!	!	!	!	!LO:DY:t=sff	!	!LO:DY:t=sff	!	!LO:DY:t=sff	!	!LO:DY:t=sff	!	!	!	!	!	!LO:DY:a	!	!	!LO:DY:a
4..d 4..A 4..F# 4..D\	4..ff# 4..dd 4..a 4..f#/	.	4..D\	[ sf	4..f# 4..A/	[ sf	4..dd 4..d/	[ sf	4..ff# 4..a\	[ sf	4..d\	[ f	4..f#\	[ f	4..a/	[ f	4..ff#\	Do-	[ f
16A 16D\	16dd 16f#\	.	16D\	.	16A/	.	16g/	.	16dd\	.	16D\	.	16d\	.	16f#/	.	16dd\	-mi-	.
=24	=24	=24	=24	=24	=24	=24	=24	=24	=24	=24	=24	=24	=24	=24	=24	=24	=24	=24	=24
!	!	!	!	!	!	!	!	!	!	!	!	!	!	!	!	!	!	!	!LO:DY:b
!	!	!	!	!	!	!	!	!	!	!	!	!	!	!	!	!	!	!	!LO:HP:b
2B 2G;\	2dd 2g;\	.	2.G;\	>	2.B;\	>	2.g 2.G;/	>	2.dd 2.d;\	>	2.G;\	> sf	2.B;\	> sf	2.g;/	sf >	2.dd;\	-ni,	sf >
2r	2r	.	.	.	.	.	.	.	.	.	.	.	.	.	.	.	.	.	.
!	!	!	!	!	!	!	!	!	!	!	!	!	!	!	!	!	!	!	!LO:DY:a
!	!	!	!	!	!	!	!	!	!	!	!	!	!	!	!	!LO:DY:a	!	!	!
!	!	!	!	!	!	!	!	!	!	!	!	!	!	!LO:DY:a	!	!	!	!	!
.	.	.	4GG/	] pp	4B/	] pp	4g/	] pp	4dd\	] pp	4GG/	] pp	4B\	] pp	4g/	] pp	4dd\	in	] pp
!!LO:LB:g=original
=25	=25	=25	=25	=25	=25	=25	=25	=25	=25	=25	=25	=25	=25	=25	=25	=25	=25	=25	=25
!	!	!	!	!	!	!	!	!	!	!LO:DY:a	!	!	!	!	!	!	!	!	!
!	!	!	!	!	!	!	!	!LO:DY:a	!	!	!	!	!	!	!	!	!	!	!
!	!	!	!	!	!	!LO:DY:a	!	!	!	!	!	!	!	!	!	!	!	!	!
!	!	!	!	!LO:DY:a	!	!	!	!	!	!	!	!	!	!	!	!	!	!	!
1r	1r	.	2AA/	p	2A/	p	2f#/	p	(2dd\	p	2AA/	p	2A/	p	2f#/	p	2dd\	no-	p
.	.	.	4AA/	.	4A/	.	4d/	.	4f#/)	.	4AA/	.	4A/	.	4d/	.	4f#/	-mi-	.
.	.	.	4AA/	.	4F#/	.	4d/	.	4f#/	.	4AA/	.	4F#/	.	4d/	.	4f#/	-ne	.
=26	=26	=26	=26	=26	=26	=26	=26	=26	=26	=26	=26	=26	=26	=26	=26	=26	=26	=26	=26
2r	2r	.	(>2.AA/	.	(>2.E/	.	(>2.c#/	.	(>2.a/	.	(>2.AA/	.	(>2.E/	.	(>2.c#/	.	(>2.a/	Do-	.
!	!	!LO:DY:t=pp.	!	!	!	!	!	!	!	!	!	!	!	!	!	!	!	!	!
2AA\	2c# 2G</ 2E<	pp	.	.	.	.	.	.	.	.	.	.	.	.	.	.	.	.	.
.	.	.	4AA/)	.	4G 4E/)	.	4A/)	.	4c#/)	.	4AA/)	.	4G/)	.	4A/)	.	4c#/)	-mi-	.
=27	=27	=27	=27	=27	=27	=27	=27	=27	=27	=27	=27	=27	=27	=27	=27	=27	=27	=27	=27
!	!	!	!LO:N:vis=1	!	!	!	!LO:TX:a:t=repetycya to moia. potrzaby.	!	!	!	!	!	!	!	!	!	!	!	!
2.AA 2.DD;\	2.d 2.F#<;/ 2.D<	.	2.D;\	.	2.F#;/	.	2.A;/	.	2.d;/	.	2.D;\	.	2.F#;/	.	2.A;/	.	2.d;/	-ni.	.
=:|!	=:|!	=:|!	=:|!	=:|!	=:|!	=:|!	=:|!	=:|!	=:|!	=:|!	=:|!	=:|!	=:|!	=:|!	=:|!	=:|!	=:|!	=:|!	=:|!
*-	*-	*-	*-	*-	*-	*-	*-	*-	*-	*-	*-	*-	*-	*-	*-	*-	*-	*-	*-
!!!system-decoration: [(g1)][(g2)]{(g3)}
!!!AIN: 1 alto 1 bass 1 empty 1 organ 1 soprn 1 tenor 1 viola 2 violn
!!!ENC: Andrzej Gręziak
!!!END: 2021-07-24
!!!RDF**kern: > = above
!!!RDF**kern: < = below
